X: 104
M:4/4
L:1/8
K:G
2GFEF GFGB|dedB AFDF||(3Bcd ef e3 g|
fd ~d2 fd ~d2|g2 "tr"gf g2 g2|afdf afdf|
a2 "tr"af g2 eg|e2 ef B3 A|DGGF GABd|(3efg dB AFDF||

